app/dist/common/images/nicolet-bankshares.svg

<svg height="18" viewBox="0 0 18 18" width="18" xmlns="http://www.w3.org/2000/svg"><path d="m0 0h18v18h-18z" fill="#f0f3fa"/><path d="m14 4.28c-.9.1-1.37.17-1.37 1.9v7.82h-.24l-6.39-8.14v5.8c0 1.52.33 2.01 1.38 2.06v.28h-3.38v-.28c1.1-.08 1.4-.46 1.4-2.07v-6.55c-.6-.74-.82-.82-1.4-.82v-.28h2.46l5.51 7.15h.03v-4.97c0-1.7-.4-1.82-1.38-1.9v-.28h3.38z" fill="#006942"/></svg>

<!-- by TradingView --><svg width="18" height="18" viewBox="0 0 18 18" xmlns="http://www.w3.org/2000/svg"><path fill="#F0F3FA" d="M0 0h18v18H0z"/><path d="M14 4.28c-.9.1-1.37.17-1.37 1.9V14h-.24L6 5.86v5.8c0 1.52.33 2.01 1.38 2.06V14H4v-.28c1.1-.08 1.4-.46 1.4-2.07V5.1c-.6-.74-.82-.82-1.4-.82V4h2.46l5.51 7.15H12V6.18c0-1.7-.4-1.82-1.38-1.9V4H14v.28Z" fill="#006942"/></svg>
